X:126
M:2/4
L:1/16
Q:1/4=120
K:Bb
bbBB ffFF|GGAA BBB,B,|CCDD EE=EE|F2F2 F4:|
|:c2>d2e2e2|(ed)(gf) (g3e/d/)|c2>d2e2e2|\
(ed)(gf) g3e/d/|B2cd efga|baba b2B2|
L:1/8
|:f2 dB|GBGE|g2 ec|AcAF|f2 dB|f2 b/g/b/g/|fDEF|B,2B,2:|

